X:1
T:Title
%%score { 1 | 2 }
L:1/8
M:4/4
K:Eb
V:1 treble nm="Grand Piano"
V:2 bass 
V:1
 z4 z2[Q:1/4=100] [EG]>[FA] | [GB]>[GB] [Ge]>[Ac] [GB]2 E>F | G>G B>A G2 G>G | %3
 [DF]2 [DF]2 [DF]>[Dc] [DB]>[DA] | [EG]6 [EG]>[FA] | [GB]>[GB] [Ge]>[Ac] [GB]2 E>F | %6
 G>G B>A G2 G>G | F2 d2 c>e d>c |[M:3/4] [DB]6 |[M:1/4] B>B |[M:4/4] A2 B2 f2 d2 | %11
 B>[Ac] [GB]>[FA] G2 B>B | c2 d2 e2 c2 |[M:9/8] B>cB- B/G/ [DF]2- [DF][DG]>[DF] | %14
[M:4/4] E>F G>[FA] [GB]2 [EG]>[GB] |[M:9/8] [Ac]>[Ac][Ad]- [Ad]/[Ad]/ [Ge]2- [Ge][B,E]>[CEF] | %16
[M:4/4] [B,EG]2 [EB]2 [DF]>[DA] [DG]>[DF] |[M:3/4] E6 |] %18
V:2
 z4 z2 [E,B,]>[E,B,] | [E,E]>[E,E] [E,B,]>[E,E] [E,E]2 [E,G,]>[E,A,E] | %2
 [E,B,E]>[E,B,E] [E,_DE]>[E,CE] [E,B,E]2 [E,B,E]>[E,B,E] | %3
 [B,,B,]2 [B,,B,]2 [B,,B,]>[B,,A,] [B,,F,]>[B,,B,] | [E,B,]6 [E,B,]>[E,B,] | %5
 [E,E]>[E,E] [E,B,]>[E,E] [E,E]2 [E,G,]>[E,A,E] | %6
 [E,B,E]>[E,B,E] [E,_DE]>[E,CE] [E,B,E]2 [E,B,E]>[E,B,E] | %7
 [F,B,D]2 [F,B,F]2 [F,=A,F]>[F,CF] [F,B,F]>[F,A,E] |[M:3/4] [B,,B,]6 | %9
[M:1/4][K:treble] [B,DF]>[B,DF] |[M:4/4] [B,DF]2 [B,DA]2 [B,DA]2 [B,FA]2 | %11
 [B,DA]>[K:bass][B,,B,] [C,B,]>[D,B,] [E,B,E]2 [E,G,E]>[E,G,E] | [A,E]2 [A,B,E]2 [A,CE]2 [A,E]2 | %13
[M:9/8] [E,G,E]>[E,A,E][E,G,E]- [E,G,E]/[E,B,E]/ [B,,B,]2- [B,,B,][B,,B,]>[B,,A,] | %14
[M:4/4] [E,G,]>[E,A,E] [E,B,E]>[E,B,] [E,E]2 [E,B,]>[E,E] | %15
[M:9/8] [A,E]>[A,E][F,B,]- [F,B,]/[F,B,]/ [E,B,]2- [E,B,]G,,>A,, | %16
[M:4/4] B,,2 [B,,G,]2 [B,,A,]>[B,,F,] [B,,B,]>[B,,A,] |[M:3/4] [E,G,]6 |] %18

